public/images/sidebar/copy.svg

<svg width="16" height="16" viewBox="0 0 16 16" fill="none" xmlns="http://www.w3.org/2000/svg">
<path fill-rule="evenodd" clip-rule="evenodd" d="M6 4V3C6 1.89543 6.89543 1 8 1H13C14.1046 1 15 1.89543 15 3V10C15 11.1046 14.1046 12 13 12H10V13C10 14.1046 9.10457 15 8 15H3C1.89543 15 1 14.1046 1 13V6C1 4.89543 1.89543 4 3 4H6ZM10 10H13V3H8V4C9.10457 4 10 4.89543 10 6V10ZM3 13V6H8V13H3Z" fill="#008C73"/>
</svg>

<svg width="16" height="16" fill="none" xmlns="http://www.w3.org/2000/svg"><path fill-rule="evenodd" clip-rule="evenodd" d="M6 4V3a2 2 0 012-2h5a2 2 0 012 2v7a2 2 0 01-2 2h-3v1a2 2 0 01-2 2H3a2 2 0 01-2-2V6a2 2 0 012-2h3zm4 6h3V3H8v1a2 2 0 012 2v4zm-7 3V6h5v7H3z" fill="#008C73"/></svg>
